X:919
T:Reel 919
M:4/4
K:Gmaj
L:1/8
g2dc BGGB|A>f (3fff A>f (3fff |g>g (3gfg dcBG|ABcA BGGc||fgaf g2gg|g|gabg abc'a|d'bc'a bggf|gbc'd' c'agb|ad'd'c' aggf|gabg abc'a|d'bc'a d'2d'c'|bd'c'a bgaf|dggf gabg|
